src/images/footer.svg

<?xml version="1.0" encoding="UTF-8" standalone="no"?>
<svg
   id="wave"
   viewBox="0 0 2073600 240100"
   version="1.1"
   width="2073600"
   height="240100"
   xmlns="http://www.w3.org/2000/svg"
   xmlns:svg="http://www.w3.org/2000/svg">
  <defs
     id="defs2">
    <linearGradient
       id="sw-gradient-0"
       x1="0"
       x2="0"
       y1="1680"
       y2="0"
       gradientTransform="scale(3.4285714,0.29166667)"
       gradientUnits="userSpaceOnUse">
      <stop
         stop-color="rgba(30, 58, 138, 1)"
         offset="0%"
         id="stop1" />
      <stop
         stop-color="rgba(214, 211, 209, 1)"
         offset="100%"
         id="stop2" />
    </linearGradient>
  </defs>
  <path
     style="opacity:1;fill:url(#sw-gradient-0)"
     fill="url(#sw-gradient-0)"
     d="M 0,0 40,8.2 C 80,16 160,33 240,57.2 320,82 400,114 480,179.7 560,245 640,343 720,351.2 800,359 880,278 960,204.2 1040,131 1120,65 1200,89.8 c 80,24.2 160,139.2 240,171.5 80,32.7 160,-16.3 240,-16.3 80,0 160,49 240,24.5 80,-24.5 160,-122.5 240,-130.7 80,-7.8 160,73.2 240,73.5 80,-0.3 160,-81.3 240,-106.1 80,-24.2 160,7.8 240,8.1 80,-0.3 160,-32.3 240,-57.1 80,-24.2 160,-41.2 240,-49 80,-8.2 160,-8.2 240,8.1 80,16.7 160,48.7 240,106.2 80,57.5 160,138.5 240,196 80,57.5 160,89.5 240,40.8 80,-49.3 160,-179.3 240,-179.6 80,0.3 160,130.3 240,138.8 80,8.5 160,-106.5 240,-130.7 80,-24.8 160,41.2 240,73.5 80,32.7 160,32.7 240,57.2 80,24.5 160,73.5 200,98 l 40,24.5 v 49 h -40 c -40,0 -120,0 -200,0 -80,0 -160,0 -240,0 -80,0 -160,0 -240,0 -80,0 -160,0 -240,0 -80,0 -160,0 -240,0 -80,0 -160,0 -240,0 -80,0 -160,0 -240,0 -80,0 -160,0 -240,0 -80,0 -160,0 -240,0 -80,0 -160,0 -240,0 -80,0 -160,0 -240,0 -80,0 -160,0 -240,0 -80,0 -160,0 -240,0 -80,0 -160,0 -240,0 -80,0 -160,0 -240,0 -80,0 -160,0 -240,0 -80,0 -160,0 -240,0 -80,0 -160,0 -240,0 -80,0 -160,0 -240,0 -80,0 -160,0 -240,0 -80,0 -160,0 -240,0 -80,0 -160,0 -240,0 -80,0 -160,0 -240,0 -80,0 -160,0 -200,0 H 0 Z"
     id="path2" />
  <defs
     id="defs4">
    <linearGradient
       id="sw-gradient-1"
       x1="0"
       x2="0"
       y1="1706.7914"
       y2="53.162205"
       gradientTransform="matrix(3.4832477,0,0,0.2870884,2.3361588e-7,3.1929929)"
       gradientUnits="userSpaceOnUse">
      <stop
         stop-color="rgba(30, 58, 138, 1)"
         offset="0%"
         id="stop3" />
      <stop
         stop-color="rgba(214, 211, 209, 1)"
         offset="100%"
         id="stop4" />
    </linearGradient>
  </defs>
  <path
     style="opacity:0.9;fill:url(#sw-gradient-1)"
     fill="url(#sw-gradient-1)"
     d="M 2.3361588e-7,101.19299 40.000002,141.99299 c 40,41.2 119.999998,122.2 199.999998,171.5 80,48.7 160,65.7 240,8.2 80,-57.5 160,-187.5 240,-253.199997 80,-65.3000001 160,-65.3000001 239.99996,-8.1 C 1040,117.19299 1120,232.19299 1200,297.19299 c 80,65 160,82 240,24.5 80,-57.5 160,-187.5 240,-236.799997 80,-48.7 160,-16.7 240,8.1 80,24.199997 160,41.199997 240,81.699997 80,40.5 160,106.5 240,114.3 80,8.2 160,-40.8 240,-24.5 80,16.7 160,97.7 240,122.5 80,24.2 160,-7.8 240,-49 80,-40.8 160,-89.8 240,-147 80,-56.8 160,-122.799997 240,-122.499997 80,-0.3 160,65.699997 240,73.499997 80,8.2 160,-40.8 240,-40.8 80,0 160,49 240,81.7 80,32.3 160,49.3 240,73.5 80,24.8 160,56.8 240,65.3 80,8.5 160,-8.5 240,-65.3 80,-57.2 160,-155.2 240,-187.899997 80,-32.3 160,-0.3 240,24.5 80,24.199997 160,41.199997 200,48.999997 l 40,8.2 v 343 h -40 c -40,0 -120,0 -200,0 -80,0 -160,0 -240,0 -80,0 -160,0 -240,0 -80,0 -160,0 -240,0 -80,0 -160,0 -240,0 -80,0 -160,0 -240,0 -80,0 -160,0 -240,0 -80,0 -160,0 -240,0 -80,0 -160,0 -240,0 -80,0 -160,0 -240,0 -80,0 -160,0 -240,0 -80,0 -160,0 -240,0 -80,0 -160,0 -240,0 -80,0 -160,0 -240,0 -80,0 -160,0 -240,0 -80,0 -160,0 -240,0 -80,0 -160,0 -240,0 -80,0 -160,0 -240,0 -80,0 -160,0 -240,0 -80,0 -160,0 -240.00004,0 -79.99996,0 -159.99996,0 -239.99996,0 -80,0 -160,0 -240,0 -80,0 -160,0 -240,0 -80,0 -159.999998,0 -199.999998,0 H 2.3361588e-7 Z"
     id="path4" />
</svg>
<!-- <svg id="wave" style="transform:rotate(0deg); transition: 0.3s" viewBox="0 0 1440 490" version="1.1" xmlns="http://www.w3.org/2000/svg"><defs><linearGradient id="sw-gradient-0" x1="0" x2="0" y1="1" y2="0"><stop stop-color="rgba(30, 58, 138, 1)" offset="0%"></stop><stop stop-color="rgba(214, 211, 209, 1)" offset="100%"></stop></linearGradient></defs><path style="transform:translate(0, 0px); opacity:1" fill="url(#sw-gradient-0)" d="M0,98L240,114.3C480,131,960,163,1440,171.5C1920,180,2400,163,2880,204.2C3360,245,3840,343,4320,367.5C4800,392,5280,343,5760,326.7C6240,310,6720,327,7200,334.8C7680,343,8160,343,8640,302.2C9120,261,9600,180,10080,187.8C10560,196,11040,294,11520,294C12000,294,12480,196,12960,130.7C13440,65,13920,33,14400,57.2C14880,82,15360,163,15840,196C16320,229,16800,212,17280,179.7C17760,147,18240,98,18720,122.5C19200,147,19680,245,20160,269.5C20640,294,21120,245,21600,253.2C22080,261,22560,327,23040,318.5C23520,310,24000,229,24480,196C24960,163,25440,180,25920,228.7C26400,278,26880,359,27360,375.7C27840,392,28320,343,28800,277.7C29280,212,29760,131,30240,155.2C30720,180,31200,310,31680,367.5C32160,425,32640,408,33120,367.5C33600,327,34080,261,34320,228.7L34560,196L34560,490L34320,490C34080,490,33600,490,33120,490C32640,490,32160,490,31680,490C31200,490,30720,490,30240,490C29760,490,29280,490,28800,490C28320,490,27840,490,27360,490C26880,490,26400,490,25920,490C25440,490,24960,490,24480,490C24000,490,23520,490,23040,490C22560,490,22080,490,21600,490C21120,490,20640,490,20160,490C19680,490,19200,490,18720,490C18240,490,17760,490,17280,490C16800,490,16320,490,15840,490C15360,490,14880,490,14400,490C13920,490,13440,490,12960,490C12480,490,12000,490,11520,490C11040,490,10560,490,10080,490C9600,490,9120,490,8640,490C8160,490,7680,490,7200,490C6720,490,6240,490,5760,490C5280,490,4800,490,4320,490C3840,490,3360,490,2880,490C2400,490,1920,490,1440,490C960,490,480,490,240,490L0,490Z"></path><defs><linearGradient id="sw-gradient-1" x1="0" x2="0" y1="1" y2="0"><stop stop-color="rgba(30, 58, 138, 1)" offset="0%"></stop><stop stop-color="rgba(214, 211, 209, 1)" offset="100%"></stop></linearGradient></defs><path style="transform:translate(0, 50px); opacity:0.9" fill="url(#sw-gradient-1)" d="M0,294L240,318.5C480,343,960,392,1440,367.5C1920,343,2400,245,2880,196C3360,147,3840,147,4320,187.8C4800,229,5280,310,5760,359.3C6240,408,6720,425,7200,375.7C7680,327,8160,212,8640,155.2C9120,98,9600,98,10080,98C10560,98,11040,98,11520,147C12000,196,12480,294,12960,285.8C13440,278,13920,163,14400,114.3C14880,65,15360,82,15840,106.2C16320,131,16800,163,17280,179.7C17760,196,18240,196,18720,179.7C19200,163,19680,131,20160,98C20640,65,21120,33,21600,16.3C22080,0,22560,0,23040,65.3C23520,131,24000,261,24480,326.7C24960,392,25440,392,25920,334.8C26400,278,26880,163,27360,163.3C27840,163,28320,278,28800,310.3C29280,343,29760,294,30240,285.8C30720,278,31200,310,31680,343C32160,376,32640,408,33120,359.3C33600,310,34080,180,34320,114.3L34560,49L34560,490L34320,490C34080,490,33600,490,33120,490C32640,490,32160,490,31680,490C31200,490,30720,490,30240,490C29760,490,29280,490,28800,490C28320,490,27840,490,27360,490C26880,490,26400,490,25920,490C25440,490,24960,490,24480,490C24000,490,23520,490,23040,490C22560,490,22080,490,21600,490C21120,490,20640,490,20160,490C19680,490,19200,490,18720,490C18240,490,17760,490,17280,490C16800,490,16320,490,15840,490C15360,490,14880,490,14400,490C13920,490,13440,490,12960,490C12480,490,12000,490,11520,490C11040,490,10560,490,10080,490C9600,490,9120,490,8640,490C8160,490,7680,490,7200,490C6720,490,6240,490,5760,490C5280,490,4800,490,4320,490C3840,490,3360,490,2880,490C2400,490,1920,490,1440,490C960,490,480,490,240,490L0,490Z"></path></svg> -->

<svg id="wave" style="transform:rotate(0deg); transition: 0.3s" viewBox="0 0 1440 490" version="1.1" xmlns="http://www.w3.org/2000/svg"><defs><linearGradient id="sw-gradient-0" x1="0" x2="0" y1="1" y2="0"><stop stop-color="rgba(30, 58, 138, 1)" offset="0%"></stop><stop stop-color="rgba(214, 211, 209, 1)" offset="100%"></stop></linearGradient></defs><path style="transform:translate(0, 0px); opacity:1" fill="url(#sw-gradient-0)" d="M0,0L40,8.2C80,16,160,33,240,57.2C320,82,400,114,480,179.7C560,245,640,343,720,351.2C800,359,880,278,960,204.2C1040,131,1120,65,1200,89.8C1280,114,1360,229,1440,261.3C1520,294,1600,245,1680,245C1760,245,1840,294,1920,269.5C2000,245,2080,147,2160,138.8C2240,131,2320,212,2400,212.3C2480,212,2560,131,2640,106.2C2720,82,2800,114,2880,114.3C2960,114,3040,82,3120,57.2C3200,33,3280,16,3360,8.2C3440,0,3520,0,3600,16.3C3680,33,3760,65,3840,122.5C3920,180,4000,261,4080,318.5C4160,376,4240,408,4320,359.3C4400,310,4480,180,4560,179.7C4640,180,4720,310,4800,318.5C4880,327,4960,212,5040,187.8C5120,163,5200,229,5280,261.3C5360,294,5440,294,5520,318.5C5600,343,5680,392,5720,416.5L5760,441L5760,490L5720,490C5680,490,5600,490,5520,490C5440,490,5360,490,5280,490C5200,490,5120,490,5040,490C4960,490,4880,490,4800,490C4720,490,4640,490,4560,490C4480,490,4400,490,4320,490C4240,490,4160,490,4080,490C4000,490,3920,490,3840,490C3760,490,3680,490,3600,490C3520,490,3440,490,3360,490C3280,490,3200,490,3120,490C3040,490,2960,490,2880,490C2800,490,2720,490,2640,490C2560,490,2480,490,2400,490C2320,490,2240,490,2160,490C2080,490,2000,490,1920,490C1840,490,1760,490,1680,490C1600,490,1520,490,1440,490C1360,490,1280,490,1200,490C1120,490,1040,490,960,490C880,490,800,490,720,490C640,490,560,490,480,490C400,490,320,490,240,490C160,490,80,490,40,490L0,490Z"></path><defs><linearGradient id="sw-gradient-1" x1="0" x2="0" y1="1" y2="0"><stop stop-color="rgba(30, 58, 138, 1)" offset="0%"></stop><stop stop-color="rgba(214, 211, 209, 1)" offset="100%"></stop></linearGradient></defs><path style="transform:translate(0, 50px); opacity:0.9" fill="url(#sw-gradient-1)" d="M0,98L40,138.8C80,180,160,261,240,310.3C320,359,400,376,480,318.5C560,261,640,131,720,65.3C800,0,880,0,960,57.2C1040,114,1120,229,1200,294C1280,359,1360,376,1440,318.5C1520,261,1600,131,1680,81.7C1760,33,1840,65,1920,89.8C2000,114,2080,131,2160,171.5C2240,212,2320,278,2400,285.8C2480,294,2560,245,2640,261.3C2720,278,2800,359,2880,383.8C2960,408,3040,376,3120,334.8C3200,294,3280,245,3360,187.8C3440,131,3520,65,3600,65.3C3680,65,3760,131,3840,138.8C3920,147,4000,98,4080,98C4160,98,4240,147,4320,179.7C4400,212,4480,229,4560,253.2C4640,278,4720,310,4800,318.5C4880,327,4960,310,5040,253.2C5120,196,5200,98,5280,65.3C5360,33,5440,65,5520,89.8C5600,114,5680,131,5720,138.8L5760,147L5760,490L5720,490C5680,490,5600,490,5520,490C5440,490,5360,490,5280,490C5200,490,5120,490,5040,490C4960,490,4880,490,4800,490C4720,490,4640,490,4560,490C4480,490,4400,490,4320,490C4240,490,4160,490,4080,490C4000,490,3920,490,3840,490C3760,490,3680,490,3600,490C3520,490,3440,490,3360,490C3280,490,3200,490,3120,490C3040,490,2960,490,2880,490C2800,490,2720,490,2640,490C2560,490,2480,490,2400,490C2320,490,2240,490,2160,490C2080,490,2000,490,1920,490C1840,490,1760,490,1680,490C1600,490,1520,490,1440,490C1360,490,1280,490,1200,490C1120,490,1040,490,960,490C880,490,800,490,720,490C640,490,560,490,480,490C400,490,320,490,240,490C160,490,80,490,40,490L0,490Z"></path></svg>


<!-- <svg id="wave" style="transform:rotate(0deg); transition: 0.3s" viewBox="0 0 1440 490" version="1.1" xmlns="http://www.w3.org/2000/svg"><defs><linearGradient id="sw-gradient-0" x1="0" x2="0" y1="1" y2="0"><stop stop-color="rgba(30, 58, 138, 1)" offset="0%"></stop><stop stop-color="rgba(214, 211, 209, 1)" offset="100%"></stop></linearGradient></defs><path style="transform:translate(0, 0px); opacity:1" fill="url(#sw-gradient-0)" d="M0,98L240,114.3C480,131,960,163,1440,171.5C1920,180,2400,163,2880,204.2C3360,245,3840,343,4320,367.5C4800,392,5280,343,5760,326.7C6240,310,6720,327,7200,334.8C7680,343,8160,343,8640,302.2C9120,261,9600,180,10080,187.8C10560,196,11040,294,11520,294C12000,294,12480,196,12960,130.7C13440,65,13920,33,14400,57.2C14880,82,15360,163,15840,196C16320,229,16800,212,17280,179.7C17760,147,18240,98,18720,122.5C19200,147,19680,245,20160,269.5C20640,294,21120,245,21600,253.2C22080,261,22560,327,23040,318.5C23520,310,24000,229,24480,196C24960,163,25440,180,25920,228.7C26400,278,26880,359,27360,375.7C27840,392,28320,343,28800,277.7C29280,212,29760,131,30240,155.2C30720,180,31200,310,31680,367.5C32160,425,32640,408,33120,367.5C33600,327,34080,261,34320,228.7L34560,196L34560,490L34320,490C34080,490,33600,490,33120,490C32640,490,32160,490,31680,490C31200,490,30720,490,30240,490C29760,490,29280,490,28800,490C28320,490,27840,490,27360,490C26880,490,26400,490,25920,490C25440,490,24960,490,24480,490C24000,490,23520,490,23040,490C22560,490,22080,490,21600,490C21120,490,20640,490,20160,490C19680,490,19200,490,18720,490C18240,490,17760,490,17280,490C16800,490,16320,490,15840,490C15360,490,14880,490,14400,490C13920,490,13440,490,12960,490C12480,490,12000,490,11520,490C11040,490,10560,490,10080,490C9600,490,9120,490,8640,490C8160,490,7680,490,7200,490C6720,490,6240,490,5760,490C5280,490,4800,490,4320,490C3840,490,3360,490,2880,490C2400,490,1920,490,1440,490C960,490,480,490,240,490L0,490Z"></path><defs><linearGradient id="sw-gradient-1" x1="0" x2="0" y1="1" y2="0"><stop stop-color="rgba(30, 58, 138, 1)" offset="0%"></stop><stop stop-color="rgba(214, 211, 209, 1)" offset="100%"></stop></linearGradient></defs><path style="transform:translate(0, 50px); opacity:0.9" fill="url(#sw-gradient-1)" d="M0,294L240,318.5C480,343,960,392,1440,367.5C1920,343,2400,245,2880,196C3360,147,3840,147,4320,187.8C4800,229,5280,310,5760,359.3C6240,408,6720,425,7200,375.7C7680,327,8160,212,8640,155.2C9120,98,9600,98,10080,98C10560,98,11040,98,11520,147C12000,196,12480,294,12960,285.8C13440,278,13920,163,14400,114.3C14880,65,15360,82,15840,106.2C16320,131,16800,163,17280,179.7C17760,196,18240,196,18720,179.7C19200,163,19680,131,20160,98C20640,65,21120,33,21600,16.3C22080,0,22560,0,23040,65.3C23520,131,24000,261,24480,326.7C24960,392,25440,392,25920,334.8C26400,278,26880,163,27360,163.3C27840,163,28320,278,28800,310.3C29280,343,29760,294,30240,285.8C30720,278,31200,310,31680,343C32160,376,32640,408,33120,359.3C33600,310,34080,180,34320,114.3L34560,49L34560,490L34320,490C34080,490,33600,490,33120,490C32640,490,32160,490,31680,490C31200,490,30720,490,30240,490C29760,490,29280,490,28800,490C28320,490,27840,490,27360,490C26880,490,26400,490,25920,490C25440,490,24960,490,24480,490C24000,490,23520,490,23040,490C22560,490,22080,490,21600,490C21120,490,20640,490,20160,490C19680,490,19200,490,18720,490C18240,490,17760,490,17280,490C16800,490,16320,490,15840,490C15360,490,14880,490,14400,490C13920,490,13440,490,12960,490C12480,490,12000,490,11520,490C11040,490,10560,490,10080,490C9600,490,9120,490,8640,490C8160,490,7680,490,7200,490C6720,490,6240,490,5760,490C5280,490,4800,490,4320,490C3840,490,3360,490,2880,490C2400,490,1920,490,1440,490C960,490,480,490,240,490L0,490Z"></path></svg> -->
